svg/azure-aci.svg

<?xml version="1.0" encoding="UTF-8"?>
<svg xmlns="http://www.w3.org/2000/svg" xmlns:xlink="http://www.w3.org/1999/xlink" width="32" height="32" viewBox="0 0 32 32">
<defs>
<filter id="filter-remove-color" x="0%" y="0%" width="100%" height="100%">
<feColorMatrix color-interpolation-filters="sRGB" values="0 0 0 0 1 0 0 0 0 1 0 0 0 0 1 0 0 0 1 0" />
</filter>
<linearGradient id="linear-pattern-0" gradientUnits="userSpaceOnUse" x1="9" y1="11.95" x2="9" y2="0" gradientTransform="matrix(1.777778, 0.00266842, -0.00266842, 1.777778, 0, 0)">
<stop offset="0" stop-color="rgb(0%, 47.058824%, 83.137255%)" stop-opacity="1"/>
<stop offset="0.16" stop-color="rgb(7.45098%, 50.196078%, 85.490196%)" stop-opacity="1"/>
<stop offset="0.53" stop-color="rgb(23.529412%, 56.862745%, 89.803922%)" stop-opacity="1"/>
<stop offset="0.82" stop-color="rgb(33.333333%, 61.176471%, 92.54902%)" stop-opacity="1"/>
<stop offset="1" stop-color="rgb(36.862745%, 62.745098%, 93.72549%)" stop-opacity="1"/>
</linearGradient>
<image id="source-20" x="0" y="0" width="32" height="32" xlink:href="data:image/png;base64,iVBORw0KGgoAAAANSUhEUgAAACAAAAAgCAYAAABzenr0AAAABmJLR0QA/wD/AP+gvaeTAAAAhUlEQVRYhe3VMQoCMRRF0TOOYmVhb+EO3Ye7dAEO2ooYC6cYLSQQcArfhTSfR/4lxQshhBBCCP9OV5HZ4YDNJF9wwRFDi8CyIrPGHtvJrOCMVcvyWoEOPRbeX6BvXW68dFYiEIEIzC5QU0QFj/F8zn4icMPJq/OnTXjFvVWg5jP6liutAk8UwRMDgQ9yOAAAAABJRU5ErkJggg=="/>
<mask id="mask-0">
<g filter="url(#filter-remove-color)">
<use xlink:href="#source-20"/>
</g>
</mask>
<clipPath id="clip-0">
<rect x="0" y="0" width="32" height="32"/>
</clipPath>
<g id="source-19" clip-path="url(#clip-0)">
<path fill-rule="nonzero" fill="rgb(71.764706%, 47.843137%, 95.686275%)" fill-opacity="1" d="M 12.300781 19.414062 L 12.300781 29.742188 L 15.09375 30.1875 L 15.09375 18.933594 Z M 8.851562 19.980469 L 8.851562 29.011719 L 11.289062 29.511719 L 11.289062 19.574219 Z M 8.851562 19.980469 "/>
</g>
<clipPath id="clip-1">
<rect x="0" y="0" width="32" height="32"/>
</clipPath>
<g id="source-22" clip-path="url(#clip-1)">
<g mask="url(#mask-0)">
<use xlink:href="#source-19"/>
</g>
</g>
</defs>
<path fill-rule="nonzero" fill="url(#linear-pattern-0)" d="M 30.988281 14.59375 C 30.890625 11.292969 28.410156 8.550781 25.136719 8.125 C 24.945312 3.476562 21.039062 -0.148438 16.390625 0 C 12.695312 -0.0625 9.363281 2.210938 8.070312 5.671875 C 4.109375 6.128906 1.082031 9.421875 0.960938 13.40625 C 1.023438 15.585938 1.957031 17.652344 3.554688 19.140625 C 5.148438 20.628906 7.273438 21.417969 9.457031 21.332031 L 24.230469 21.332031 C 27.9375 21.292969 30.941406 18.304688 30.988281 14.59375 "/>
<path fill-rule="nonzero" fill="rgb(94.901961%, 94.901961%, 94.901961%)" fill-opacity="1" d="M 11.308594 11.484375 L 16 6.878906 C 16.210938 6.667969 16.554688 6.667969 16.765625 6.878906 L 21.332031 11.484375 C 21.414062 11.550781 21.441406 11.660156 21.402344 11.757812 C 21.359375 11.855469 21.257812 11.910156 21.15625 11.894531 L 18.277344 11.894531 C 18.144531 11.902344 18.035156 12.007812 18.027344 12.140625 L 18.027344 17.902344 C 18.027344 18.011719 17.9375 18.097656 17.832031 18.097656 L 14.738281 18.097656 C 14.6875 18.097656 14.636719 18.078125 14.597656 18.042969 C 14.5625 18.007812 14.542969 17.957031 14.542969 17.902344 L 14.542969 12.140625 C 14.542969 12.011719 14.441406 11.90625 14.3125 11.894531 L 11.464844 11.894531 C 11.363281 11.902344 11.269531 11.839844 11.238281 11.746094 C 11.203125 11.652344 11.230469 11.546875 11.308594 11.484375 "/>
<path fill-rule="nonzero" fill="rgb(65.098039%, 47.843137%, 95.686275%)" fill-opacity="1" d="M 24.890625 20.214844 C 24.894531 20.109375 24.828125 20.015625 24.730469 19.980469 L 16.285156 17.15625 L 16 17.15625 L 16 32 L 16.230469 32 L 24.605469 28.65625 C 24.671875 28.671875 24.742188 28.65625 24.796875 28.617188 C 24.851562 28.578125 24.886719 28.511719 24.890625 28.445312 Z M 24.890625 20.214844 "/>
<path fill-rule="nonzero" fill="rgb(33.333333%, 18.431373%, 60%)" fill-opacity="1" d="M 16 17.207031 L 7.980469 18.683594 C 7.863281 18.703125 7.777344 18.796875 7.769531 18.914062 L 7.769531 29.992188 C 7.773438 30.109375 7.851562 30.207031 7.964844 30.238281 L 16 32 C 16.070312 32.011719 16.140625 31.996094 16.195312 31.949219 C 16.25 31.90625 16.285156 31.839844 16.285156 31.769531 L 16.285156 17.546875 C 16.320312 17.460938 16.304688 17.363281 16.246094 17.289062 C 16.1875 17.21875 16.089844 17.1875 16 17.207031 "/>
<use xlink:href="#source-22"/>
</svg>

<svg role="img" viewBox="0 0 32 32" xmlns="http://www.w3.org/2000/svg"><defs><clipPath id="azure-aci_svg__a"><path d="M0 0h32v32H0z"/></clipPath><clipPath id="azure-aci_svg__b"><path d="M0 0h32v32H0z"/></clipPath><g clip-path="url(#azure-aci_svg__a)" id="azure-aci_svg__d"><path d="M12.3 19.414v10.328l2.794.445V18.935Zm-3.448.566v9.032l2.437.5v-9.938Zm0 0" fill="rgb(71.764708%, 47.843137%, 95.686275%)"/></g><g clip-path="url(#azure-aci_svg__b)" id="azure-aci_svg__h" mask="url(#azure-aci_svg__c)"><use href="#azure-aci_svg__d"/></g><linearGradient gradientTransform="rotate(.086)scale(1.77778)" gradientUnits="userSpaceOnUse" id="azure-aci_svg__g" x1="9" x2="9" y1="11.95" y2="0"><stop offset="0" stop-color="rgb(0%, 47.058824%, 83.137256%)"/><stop offset=".16" stop-color="rgb(7.450981%, 50.196081%, 85.490197%)"/><stop offset=".53" stop-color="rgb(23.529412%, 56.862748%, 89.803922%)"/><stop offset=".82" stop-color="rgb(33.333334%, 61.176473%, 92.54902%)"/><stop offset="1" stop-color="rgb(36.862746%, 62.7451%, 93.725491%)"/></linearGradient><filter height="100%" id="azure-aci_svg__e" width="100%" x="0%" y="0%"><feColorMatrix color-interpolation-filters="sRGB" values="0 0 0 0 1 0 0 0 0 1 0 0 0 0 1 0 0 0 1 0"/></filter><image height="32" href="data:image/png;base64,iVBORw0KGgoAAAANSUhEUgAAACAAAAAgCAYAAABzenr0AAAABmJLR0QA/wD/AP+gvaeTAAAAkklEQVRYhe3UMQrCQBCF4S+JjYiFN/AEnsibeTYLD6BoIxaStbBJIMrAoiLMXw6P3Z8ZeCRJkiRJkvyYJph5letrBWaBzAZbLAciBWfssP+0wAJrrAazgiPmNZ9HBRp0aI030Imd8C1t7QMpkAIp8PcCkSIqnp3fT8zKNwSuOOBk3IQX3GoFIlXamq7dgrvKLTwAcTgXBlSA6c4AAAAASUVORK5CYII=" id="azure-aci_svg__f" width="32" x="0" y="0"/><mask id="azure-aci_svg__c"><g filter="url(#azure-aci_svg__e)"><use href="#azure-aci_svg__f"/></g></mask></defs><path d="M30.988 14.594a6.72 6.72 0 0 0-5.851-6.469C24.945 3.477 21.039-.148 16.39 0a8.725 8.725 0 0 0-8.32 5.672 8.03 8.03 0 0 0-7.11 7.734 8.175 8.175 0 0 0 8.496 7.926H24.23a6.827 6.827 0 0 0 6.758-6.738" fill="url(#azure-aci_svg__g)"/><path d="M11.309 11.484 16 6.88a.543.543 0 0 1 .766 0l4.566 4.605c.082.067.11.176.07.274a.23.23 0 0 1-.246.137h-2.879a.265.265 0 0 0-.25.246v5.761c0 .11-.09.196-.195.196h-3.094a.2.2 0 0 1-.14-.055.2.2 0 0 1-.055-.14V12.14a.25.25 0 0 0-.23-.246h-2.848a.22.22 0 0 1-.227-.149.23.23 0 0 1 .07-.262" fill="rgb(94.901961%, 94.901961%, 94.901961%)"/><path d="M24.89 20.215a.24.24 0 0 0-.16-.235l-8.445-2.824H16V32h.23l8.375-3.344a.232.232 0 0 0 .285-.21Zm0 0" fill="rgb(65.098041%, 47.843137%, 95.686275%)"/><path d="m16 17.207-8.02 1.477a.25.25 0 0 0-.21.23v11.078a.26.26 0 0 0 .195.246L16 32c.07.016.14-.004.195-.047a.23.23 0 0 0 .09-.183V17.547a.26.26 0 0 0-.039-.258.25.25 0 0 0-.246-.082" fill="rgb(33.333334%, 18.431373%, 60.000002%)"/><use href="#azure-aci_svg__h"/></svg>
